client/src/shared/assets/icons/order.svg

<svg width="24" height="24" viewBox="0 0 24 24" fill="none" xmlns="http://www.w3.org/2000/svg">
<path fill-rule="evenodd" clip-rule="evenodd" d="M20 7.82843C20 7.29799 19.7893 6.78929 19.4142 6.41421L15.5858 2.58579C15.2107 2.21071 14.702 2 14.1716 2H6C4.89543 2 4 2.89543 4 4V20C4 21.1045 4.89543 22 6 22H18C19.1046 22 20 21.1045 20 20V7.82843ZM15.5 11C16.0523 11 16.5 10.5523 16.5 10C16.5 9.44772 16.0523 9 15.5 9H8.5C7.94772 9 7.5 9.44772 7.5 10C7.5 10.5523 7.94772 11 8.5 11H15.5ZM8.5 15.5C7.94772 15.5 7.5 15.0523 7.5 14.5C7.5 13.9477 7.94772 13.5 8.5 13.5H13.5C14.0523 13.5 14.5 13.9477 14.5 14.5C14.5 15.0523 14.0523 15.5 13.5 15.5H8.5Z" fill="#777777"/>
</svg>

<svg xmlns="http://www.w3.org/2000/svg" fill="currentColor" viewBox="0 0 24 24"><path fill-rule="evenodd" d="M20 7.828a2 2 0 0 0-.586-1.414l-3.828-3.828A2 2 0 0 0 14.172 2H6a2 2 0 0 0-2 2v16a2 2 0 0 0 2 2h12a2 2 0 0 0 2-2zM15.5 11a1 1 0 1 0 0-2h-7a1 1 0 0 0 0 2zm-7 4.5a1 1 0 1 1 0-2h5a1 1 0 1 1 0 2z" clip-rule="evenodd"/></svg>
